public/assets/imgs/projetos/icons/sofa-icon-9f2f3.svg

<svg fill="none" height="44" viewBox="0 0 42 44" width="42" xmlns="http://www.w3.org/2000/svg"><path clip-rule="evenodd" d="m26.3424 8.56275c2.8618-6.38432 3.664-8.066672 3.9676-8.303926.2385-.1725495 1.3225-.258824 3.6207-.258824 2.8836 0 3.3389.0431372 3.6424.388235.1951.215687.6071.949015.9106 1.617645.3035.6902.542 1.38039.542 1.53138 0 .17254-.1518.36666-.3469.43137-.1951.08627-.477.04313-.6287-.08628-.1518-.12941-.4987-.7549-.7805-1.40196l-.5204-1.18627h-2.8402-2.8402l-1.8862 4.16274c-1.019 2.28628-1.8646 4.27059-1.8646 4.42157 0 .19407 1.5177.25887 6.6127.25887 4.0543 0 6.6127-.0863 6.6127-.21573 0-.10784-.3903-1.07843-.8673-2.17843-.4986-1.1-.8455-2.11373-.7805-2.28628.0651-.15098.3252-.28039.5637-.28039.3469 0 .6505.43137 1.431 2.09216.5203 1.14313 1.019 2.30784 1.084 2.56666.0867.34511-.0433.64711-.4336 1.03531-.4987.5176-.6721.5608-2.6884.5608-1.3911 0-1.8806 0-2.0883.2407-.1128.1307-.1425.3324-.1882.6436-.0651.4745-.2819 1.0568-.477 1.2725s-.6504.4745-.9973.5393c-.0693.0166-.131.0314-.1859.0594-.4429.226-.4429 1.3111-.4429 11.1562 0 9.8791 0 10.9377.4784 11.2353.0574.0358.1217.0605.1937.0883.3686.1509.7589.5176.8673.798s.1951.8628.1951 1.2726c0 .6254.0867.7333.4987.7333.2601 0 .8021.1941 1.1924.4314.3903.2372.8889.7333 1.1274 1.1215.2385.3883.4336.9922.4336 1.3157 0 .3451-.2168.8196-.542 1.1216-.5203.5392-.542.5392-4.9433.5392-4.1627 0-4.4662-.0216-5.0082-.4529-.412-.3236-.5638-.6471-.5638-1.2079 0-.4314.1952-1.0784.4337-1.4667.2385-.3882.7805-.8627 1.1707-1.0568.412-.1941.9323-.3451 1.1925-.3451.3902 0 .4553-.1294.4553-.8843 0-.4745.1084-1.0569.2385-1.2941.1084-.2373.4553-.5177.7588-.6255.0454-.0188.0868-.036.1246-.059.3958-.2412.3958-1.1252.3958-11.2646 0-10.0029 0-10.9979-.3959-11.1914-.0437-.0214-.0923-.0329-.1462-.0458-.3035-.0647-.7371-.3883-.9756-.6686-.2385-.302-.4336-.8844-.4336-1.2726 0-.2458 0-.4092-.0776-.5178-.1538-.2155-.6127-.2155-1.9821-.2155-1.1274 0-2.2982-.1079-2.6017-.2589-.3036-.1294-.6071-.4745-.6721-.7549-.0868-.3235.0867-1.01368.4553-1.85485zm8.601 4.12715c.0937-.1012.1095-.2738.1364-.5683.0259-.2747.0414-.44-.0325-.5396-.1119-.1506-.4287-.1506-1.225-.1506s-1.1132 0-1.225.1506c-.074.0996-.0584.2649-.0325.5396.0269.2945.0427.4671.1364.5683.1328.1434.422.1434 1.1211.1434.699 0 .9883 0 1.1211-.1434zm-.1282 26.6608c.0948-.1077.0785-.312.0478-.6997-.0651-.7549-.1084-.7981-.8239-.8628-.4336-.0431-.8456 0-.9323.0863s-.1518.4745-.1518.8843c0 .7118.0217.7118.9974.7118.5141 0 .7573 0 .8628-.1199zm3.2999 2.9022c.0217-.1941-.1301-.5823-.3686-.8627-.3902-.4961-.542-.5177-3.6857-.5824-3.2522-.0647-3.2738-.0647-3.8159.4746-.3035.3019-.542.7333-.542.9921 0 .4314.0867.4314 4.1627.3882 3.6208-.0647 4.1845-.1078 4.2495-.4098zm-32.13116-26.8313c.32522-.2157.84556-.453 1.14909-.5608.30354-.0863 4.14107-.151 8.49897-.1294 6.8675.0374 7.7752.0424 8.4762.4236.1068.0581.2087.1249.3262.2019.477.3019 1.019.9058 1.2142 1.3156.3035.6255.3685 1.5099.3685 5.2844v4.5294l1.5177.0862c1.3009.0648 1.5827.151 2.1681.7118.3686.3451.7588.9922.8889 1.4667.1735.6902.1518.9706-.2385 1.747-.2601.5824-.7154 1.0785-1.1707 1.3157-.2027.1127-.3496.1944-.458.3114-.2857.3087-.303.8634-.3659 2.8808v.0001c-.0452 1.9323-.059 2.5226-.3319 2.9486-.1201.1874-.2903.3429-.5354.567-.5853.5176-1.019.7333-1.5393.7333-.4119 0-.7805.0431-.8239.1078-.065.0432-.0217.9275.0867 1.9412.1735 1.6392.1735 1.8981-.1734 2.2647-.2819.3236-.6721.4314-1.4093.4314-.8889 0-1.1057-.0863-1.5393-.6255-.2602-.3451-.7372-1.3804-1.0407-2.3078l-.5637-1.704h-5.3118-5.31187l-.65043 1.9628c-.34689 1.1-.78051 2.1353-.95396 2.3294-.19513.2157-.65043.3451-1.32254.3451-.73715 0-1.12741-.1078-1.40926-.4314-.34689-.3882-.36857-.6039-.17345-2.2.13009-.9921.17345-1.8549.13009-1.9627-.04336-.0863-.41194-.151-.80219-.151-.41194 0-.97565-.1941-1.32254-.4745-.32522-.2588-.73716-.7765-.88892-1.1647-.19513-.4745-.30354-1.5745-.30354-3.1059 0-2.3078-.02168-2.3941-.49866-2.5667-.28185-.1078-.780511-.5176-1.084044-.8843-.4553-.5392-.585386-.9059-.585386-1.7039 0-.7333.130086-1.2078.4553-1.6176.23849-.302.73715-.7118 1.06237-.8844.34689-.1725 1.17077-.3235 1.8212-.3235h1.19245l.06504-1.898.00055-.0155c.0645-1.8181.06602-1.861.60652-1.861.54048 0 .54202.0429.60651 1.8395l.00055.0154.00021.0058c.06484 1.8492.06561 1.8712.80199 2.3668.41194.2803.84556.7333.95396 1.0137.13009.2804.23849 1.0353.23849 1.6823 0 .6945 0 .9897.13598 1.0782.10053.0655.27538.0181.57949-.0644.36858-.0863 3.38219-.1726 6.65609-.1726 3.2738 0 6.3308.0647 6.7861.151.3449.0649.5416.1019.6536.0218.1486-.1061.1486-.418.1486-1.1434 0-1.1215.0867-1.3804.6721-2.049.3686-.4098.8022-.7549.9756-.7549.2602 0 .3036-.798.3036-4.5941s-.0651-4.6588-.3469-5.0686c-.1735-.2589-.6071-.6255-.954-.7981-.5203-.2588-1.8862-.3235-8.0219-.3235-5.70212 0-7.545.0647-8.08702.2804-.39026.1725-.84556.4745-1.019.6902-.21681.2588-.36858 1.0568-.43362 2.351-.10841 1.9196-.13009 1.9627-.65043 1.9627-.5405 0-.54202-.0429-.60652-1.861l-.00055-.0155c-.04336-1.5313.02168-2.0274.36858-2.7176.23849-.453.69379-1.0137 1.019-1.2294zm.73715 16.7588c-.1084-3.3863-.13008-3.5588-.62874-3.9471-.39026-.3235-.84556-.4098-2.21146-.4098-1.43094 0-1.77784.0647-2.14641.4314-.23849.2373-.43362.6902-.43362 1.0353 0 .3235.15176.8196.34689 1.0784.17345.2589.52034.4745.73715.4745s.54203.0647.73716.1295c.30353.1078.34689.6039.34689 3.1274 0 2.7176.04336 3.0412.43362 3.4294.41194.4098.71547.4314 11.38253.4314 10.667 0 10.9705-.0216 11.3825-.4314.3902-.3882.4336-.7118.4336-3.3 0-1.9412.0867-2.9549.2602-3.1274.1517-.151.4769-.2589.7154-.2589.2602 0 .6288-.1725.8239-.3882.2168-.2157.3686-.7549.3686-1.1863 0-1.1215-.5637-1.4451-2.6017-1.4451-1.1274 0-1.7779.1079-2.1248.3451-.4553.3236-.4769.453-.4769 3.7314 0 2.6314-.0651 3.4725-.3036 3.6667-.1951.1725-2.6451.2157-8.6073.1941l-8.3255-.0647zm15.80541.5392c-.1518-.3235-.542-.6255-1.0624-.7765-.5203-.1509-2.8402-.2372-6.4175-.2156-3.1004 0-5.8322.0862-6.07069.1941-.26017.1078-.62874.4098-.82387.6902-.19513.2588-.3469.798-.3469 1.1862v.7118h7.47996c6.2526 0 7.2785 0 7.4469-.378.033-.0741.033-.1629.033-.2691 0-.3451-.1084-.8627-.2385-1.1431zm-14.59127 8.3902c.28185-.8196.4553-1.5745.39025-1.6823-.06504-.0863-.34689-.1726-.62874-.1726-.28186 0-.60707.1726-.71547.3667-.10841.2157-.26018.9921-.32522 1.747-.1084 1.2726-.08672 1.3589.32522 1.2941.34689-.0431.5637-.4313.95396-1.5529zm16.00057.1294c-.0651-.798-.1518-1.5745-.2168-1.7255-.0434-.1294-.3469-.2588-.6938-.2588s-.6721.0647-.7372.1294c-.0867.0647.1084.8412.412 1.7255.4119 1.251.6287 1.5961.9539 1.5961.3903 0 .412-.1079.2819-1.4667zm-12.5888-21.9817v-.5097c0-.1102.1669-.1988.3449-.1988.1781 0 .3135.0886.3135.183v.5255h.5866c.1107 0 .1998.1659.1998.3431 0 .1771-.0891.3119-.184.3119h-.6023v.5946c0 .1102-.1669.1988-.3449.1988-.1781 0-.3135-.0886-.3135-.183v-.6104h-.5236c-.1108 0-.1998-.166-.1998-.3431s.089-.3119.1839-.3119zm0 5.0981v.5097h-.5394c-.0949 0-.1839.1348-.1839.3119 0 .1772.089.3431.1998.3431h.5236v.6104c0 .0945.1354.183.3135.183.178 0 .3449-.0885.3449-.1987v-.5947h.6023c.0949 0 .184-.1348.184-.3119s-.0891-.3431-.1998-.3431h-.5866v-.5254c0-.0945-.1354-.183-.3135-.183-.178 0-.3449.0885-.3449.1987zm7.1547-5.0981v-.5097c0-.1102.1669-.1988.3449-.1988.1781 0 .3135.0886.3135.183v.5255h.5866c.1108 0 .1998.1659.1998.3431 0 .1771-.089.3119-.184.3119h-.6023v.5946c0 .1102-.1669.1988-.3449.1988-.1781 0-.3135-.0886-.3135-.183v-.6104h-.5236c-.1108 0-.1998-.166-.1998-.3431s.089-.3119.184-.3119zm0 5.0981v.5097h-.5393c-.095 0-.184.1348-.184.3119 0 .1772.089.3431.1998.3431h.5236v.6104c0 .0945.1354.183.3135.183.178 0 .3449-.0885.3449-.1987v-.5947h.6023c.095 0 .184-.1348.184-.3119s-.089-.3431-.1998-.3431h-.5866v-.5254c0-.0945-.1354-.183-.3135-.183-.178 0-.3449.0885-.3449.1987z" fill="#000" fill-rule="evenodd"/></svg>

<svg width="42" height="44" viewBox="0 0 42 44" fill="none" xmlns="http://www.w3.org/2000/svg">
<path fill-rule="evenodd" clip-rule="evenodd" d="M26.3424 8.56275C29.2042 2.17843 30.0064 0.496078 30.31 0.258824C30.5485 0.0862745 31.6325 0 33.9307 0C36.8143 0 37.2696 0.0431372 37.5731 0.388235C37.7682 0.603922 38.1802 1.33725 38.4837 2.00588C38.7872 2.69608 39.0257 3.38627 39.0257 3.53726C39.0257 3.7098 38.8739 3.90392 38.6788 3.96863C38.4837 4.0549 38.2018 4.01176 38.0501 3.88235C37.8983 3.75294 37.5514 3.12745 37.2696 2.48039L36.7492 1.29412H33.909H31.0688L29.1826 5.45686C28.1636 7.74314 27.318 9.72745 27.318 9.87843C27.318 10.0725 28.8357 10.1373 33.9307 10.1373C37.985 10.1373 40.5434 10.051 40.5434 9.92157C40.5434 9.81373 40.1531 8.84314 39.6761 7.74314C39.1775 6.64314 38.8306 5.62941 38.8956 5.45686C38.9607 5.30588 39.2208 5.17647 39.4593 5.17647C39.8062 5.17647 40.1098 5.60784 40.8903 7.26863C41.4106 8.41176 41.9093 9.57647 41.9743 9.83529C42.061 10.1804 41.931 10.4824 41.5407 10.8706C41.042 11.3882 40.8686 11.4314 38.8523 11.4314C37.4612 11.4314 36.9717 11.4314 36.764 11.6721C36.6512 11.8028 36.6215 12.0045 36.5758 12.3157C36.5107 12.7902 36.2939 13.3725 36.0988 13.5882C35.9037 13.8039 35.4484 14.0627 35.1015 14.1275C35.0322 14.1441 34.9705 14.1589 34.9156 14.1869C34.4727 14.4129 34.4727 15.498 34.4727 25.3431C34.4727 35.2222 34.4727 36.2808 34.9511 36.5784C35.0085 36.6142 35.0728 36.6389 35.1448 36.6667C35.5134 36.8176 35.9037 37.1843 36.0121 37.4647C36.1205 37.7451 36.2072 38.3275 36.2072 38.7373C36.2072 39.3627 36.2939 39.4706 36.7059 39.4706C36.966 39.4706 37.508 39.6647 37.8983 39.902C38.2886 40.1392 38.7872 40.6353 39.0257 41.0235C39.2642 41.4118 39.4593 42.0157 39.4593 42.3392C39.4593 42.6843 39.2425 43.1588 38.9173 43.4608C38.397 44 38.3753 44 33.974 44C29.8113 44 29.5078 43.9784 28.9658 43.5471C28.5538 43.2235 28.402 42.9 28.402 42.3392C28.402 41.9078 28.5972 41.2608 28.8357 40.8725C29.0742 40.4843 29.6162 40.0098 30.0064 39.8157C30.4184 39.6216 30.9387 39.4706 31.1989 39.4706C31.5891 39.4706 31.6542 39.3412 31.6542 38.5863C31.6542 38.1118 31.7626 37.5294 31.8927 37.2922C32.0011 37.0549 32.348 36.7745 32.6515 36.6667C32.6969 36.6479 32.7383 36.6307 32.7761 36.6077C33.1719 36.3665 33.1719 35.4825 33.1719 25.3431C33.1719 15.3402 33.1719 14.3452 32.776 14.1517C32.7323 14.1303 32.6837 14.1188 32.6298 14.1059C32.3263 14.0412 31.8927 13.7176 31.6542 13.4373C31.4157 13.1353 31.2206 12.5529 31.2206 12.1647C31.2206 11.9189 31.2206 11.7555 31.143 11.6469C30.9892 11.4314 30.5303 11.4314 29.1609 11.4314C28.0335 11.4314 26.8627 11.3235 26.5592 11.1725C26.2556 11.0431 25.9521 10.698 25.8871 10.4176C25.8003 10.0941 25.9738 9.40392 26.3424 8.56275ZM34.9434 12.6899C35.0371 12.5887 35.0529 12.4161 35.0798 12.1216C35.1057 11.8469 35.1212 11.6816 35.0473 11.582C34.9354 11.4314 34.6186 11.4314 33.8223 11.4314C33.026 11.4314 32.7091 11.4314 32.5973 11.582C32.5233 11.6816 32.5389 11.8469 32.5648 12.1216C32.5917 12.4161 32.6075 12.5887 32.7012 12.6899C32.834 12.8333 33.1232 12.8333 33.8223 12.8333C34.5213 12.8333 34.8106 12.8333 34.9434 12.6899ZM34.8152 39.3507C34.91 39.243 34.8937 39.0387 34.863 38.651C34.7979 37.8961 34.7546 37.8529 34.0391 37.7882C33.6055 37.7451 33.1935 37.7882 33.1068 37.8745C33.0201 37.9608 32.955 38.349 32.955 38.7588C32.955 39.4706 32.9767 39.4706 33.9524 39.4706C34.4665 39.4706 34.7097 39.4706 34.8152 39.3507ZM38.1151 42.2529C38.1368 42.0588 37.985 41.6706 37.7465 41.3902C37.3563 40.8941 37.2045 40.8725 34.0608 40.8078C30.8086 40.7431 30.787 40.7431 30.2449 41.2824C29.9414 41.5843 29.7029 42.0157 29.7029 42.2745C29.7029 42.7059 29.7896 42.7059 33.8656 42.6627C37.4864 42.598 38.0501 42.5549 38.1151 42.2529ZM5.98394 15.4216C6.30916 15.2059 6.8295 14.9686 7.13303 14.8608C7.43657 14.7745 11.2741 14.7098 15.632 14.7314H15.632H15.632H15.632H15.632C22.4995 14.7688 23.4072 14.7738 24.1082 15.155C24.215 15.2131 24.3169 15.2799 24.4344 15.3569C24.9114 15.6588 25.4534 16.2627 25.6486 16.6725C25.9521 17.298 26.0171 18.1824 26.0171 21.9569V26.4863L27.5348 26.5725C28.8357 26.6373 29.1175 26.7235 29.7029 27.2843C30.0715 27.6294 30.4617 28.2765 30.5918 28.751C30.7653 29.4412 30.7436 29.7216 30.3533 30.498C30.0932 31.0804 29.6379 31.5765 29.1826 31.8137C28.9799 31.9264 28.833 32.0081 28.7246 32.1251C28.4389 32.4338 28.4216 32.9885 28.3587 35.0059V35.0059V35.006C28.3135 36.9383 28.2997 37.5286 28.0268 37.9546C27.9067 38.142 27.7365 38.2975 27.4914 38.5216C26.9061 39.0392 26.4724 39.2549 25.9521 39.2549C25.5402 39.2549 25.1716 39.298 25.1282 39.3627C25.0632 39.4059 25.1065 40.2902 25.2149 41.3039C25.3884 42.9431 25.3884 43.202 25.0415 43.5686C24.7596 43.8922 24.3694 44 23.6322 44C22.7433 44 22.5265 43.9137 22.0929 43.3745C21.8327 43.0294 21.3557 41.9941 21.0522 41.0667L20.4885 39.3627H15.1767H9.86483L9.2144 41.3255C8.86751 42.4255 8.43389 43.4608 8.26044 43.6549C8.06531 43.8706 7.61001 44 6.9379 44C6.20075 44 5.81049 43.8922 5.52864 43.5686C5.18175 43.1804 5.16007 42.9647 5.35519 41.3686C5.48528 40.3765 5.52864 39.5137 5.48528 39.4059C5.44192 39.3196 5.07334 39.2549 4.68309 39.2549C4.27115 39.2549 3.70744 39.0608 3.36055 38.7804C3.03533 38.5216 2.62339 38.0039 2.47163 37.6157C2.2765 37.1412 2.16809 36.0412 2.16809 34.5098C2.16809 32.202 2.14641 32.1157 1.66943 31.9431C1.38758 31.8353 0.888919 31.4255 0.585386 31.0588C0.130086 30.5196 0 30.1529 0 29.3549C0 28.6216 0.130086 28.1471 0.4553 27.7373C0.69379 27.4353 1.19245 27.0255 1.51767 26.8529C1.86456 26.6804 2.68844 26.5294 3.33887 26.5294H4.53132L4.59636 24.6314L4.59691 24.6159C4.66141 22.7978 4.66293 22.7549 5.20343 22.7549C5.74391 22.7549 5.74545 22.7978 5.80994 24.5944L5.81049 24.6098L5.8107 24.6156C5.87554 26.4648 5.87631 26.4868 6.61269 26.9824C7.02463 27.2627 7.45825 27.7157 7.56665 27.9961C7.69674 28.2765 7.80514 29.0314 7.80514 29.6784C7.80514 30.3729 7.80514 30.6681 7.94112 30.7566C8.04165 30.8221 8.2165 30.7747 8.52061 30.6922C8.88919 30.6059 11.9028 30.5196 15.1767 30.5196C18.4505 30.5196 21.5075 30.5843 21.9628 30.6706C22.3077 30.7355 22.5044 30.7725 22.6164 30.6924C22.765 30.5863 22.765 30.2744 22.765 29.549C22.765 28.4275 22.8517 28.1686 23.4371 27.5C23.8057 27.0902 24.2393 26.7451 24.4127 26.7451C24.6729 26.7451 24.7163 25.9471 24.7163 22.151C24.7163 18.3549 24.6512 17.4922 24.3694 17.0824C24.1959 16.8235 23.7623 16.4569 23.4154 16.2843C22.8951 16.0255 21.5292 15.9608 15.3935 15.9608C9.69138 15.9608 7.8485 16.0255 7.30648 16.2412C6.91622 16.4137 6.46092 16.7157 6.28748 16.9314C6.07067 17.1902 5.9189 17.9882 5.85386 19.2824C5.74545 21.202 5.72377 21.2451 5.20343 21.2451C4.66293 21.2451 4.66141 21.2022 4.59691 19.3841L4.59636 19.3686C4.553 17.8373 4.61804 17.3412 4.96494 16.651C5.20343 16.198 5.65873 15.6373 5.98394 15.4216ZM6.72109 32.1804C6.61269 28.7941 6.59101 28.6216 6.09235 28.2333C5.70209 27.9098 5.24679 27.8235 3.88089 27.8235C2.44995 27.8235 2.10305 27.8882 1.73448 28.2549C1.49599 28.4922 1.30086 28.9451 1.30086 29.2902C1.30086 29.6137 1.45262 30.1098 1.64775 30.3686C1.8212 30.6275 2.16809 30.8431 2.3849 30.8431C2.60171 30.8431 2.92693 30.9078 3.12206 30.9726C3.42559 31.0804 3.46895 31.5765 3.46895 34.1C3.46895 36.8176 3.51231 37.1412 3.90257 37.5294C4.31451 37.9392 4.61804 37.9608 15.2851 37.9608C25.9521 37.9608 26.2556 37.9392 26.6676 37.5294C27.0578 37.1412 27.1012 36.8176 27.1012 34.2294C27.1012 32.2882 27.1879 31.2745 27.3614 31.102C27.5131 30.951 27.8383 30.8431 28.0768 30.8431C28.337 30.8431 28.7056 30.6706 28.9007 30.4549C29.1175 30.2392 29.2693 29.7 29.2693 29.2686C29.2693 28.1471 28.7056 27.8235 26.6676 27.8235C25.5402 27.8235 24.8897 27.9314 24.5428 28.1686C24.0875 28.4922 24.0659 28.6216 24.0659 31.9C24.0659 34.5314 24.0008 35.3725 23.7623 35.5667C23.5672 35.7392 21.1172 35.7824 15.155 35.7608L6.8295 35.6961L6.72109 32.1804ZM22.5265 32.7196C22.3747 32.3961 21.9845 32.0941 21.4641 31.9431C20.9438 31.7922 18.6239 31.7059 15.0466 31.7275C11.9462 31.7275 9.2144 31.8137 8.97591 31.9216C8.71574 32.0294 8.34717 32.3314 8.15204 32.6118C7.95691 32.8706 7.80514 33.4098 7.80514 33.798V34.5098H15.2851C21.5377 34.5098 22.5636 34.5098 22.732 34.1318C22.765 34.0577 22.765 33.9689 22.765 33.8627C22.765 33.5176 22.6566 33 22.5265 32.7196ZM7.93523 41.1098C8.21708 40.2902 8.39053 39.5353 8.32548 39.4275C8.26044 39.3412 7.97859 39.2549 7.69674 39.2549C7.41488 39.2549 7.08967 39.4275 6.98127 39.6216C6.87286 39.8373 6.72109 40.6137 6.65605 41.3686C6.54765 42.6412 6.56933 42.7275 6.98127 42.6627C7.32816 42.6196 7.54497 42.2314 7.93523 41.1098ZM23.9358 41.2392C23.8707 40.4412 23.784 39.6647 23.719 39.5137C23.6756 39.3843 23.3721 39.2549 23.0252 39.2549C22.6783 39.2549 22.3531 39.3196 22.288 39.3843C22.2013 39.449 22.3964 40.2255 22.7 41.1098C23.1119 42.3608 23.3287 42.7059 23.6539 42.7059C24.0442 42.7059 24.0659 42.598 23.9358 41.2392ZM11.347 19.2575V18.7478C11.347 18.6376 11.5139 18.549 11.6919 18.549C11.87 18.549 12.0054 18.6376 12.0054 18.732V19.2575H12.592C12.7027 19.2575 12.7918 19.4234 12.7918 19.6006C12.7918 19.7777 12.7027 19.9125 12.6078 19.9125H12.0055V20.5071C12.0055 20.6173 11.8386 20.7059 11.6606 20.7059C11.4825 20.7059 11.3471 20.6173 11.3471 20.5229V19.9125H10.8235C10.7127 19.9125 10.6237 19.7465 10.6237 19.5694C10.6237 19.3923 10.7127 19.2575 10.8076 19.2575H11.347ZM11.347 24.3556V24.8653H10.8076C10.7127 24.8653 10.6237 25.0001 10.6237 25.1772C10.6237 25.3544 10.7127 25.5203 10.8235 25.5203H11.3471V26.1307C11.3471 26.2252 11.4825 26.3137 11.6606 26.3137C11.8386 26.3137 12.0055 26.2252 12.0055 26.115V25.5203H12.6078C12.7027 25.5203 12.7918 25.3855 12.7918 25.2084C12.7918 25.0313 12.7027 24.8653 12.592 24.8653H12.0054V24.3399C12.0054 24.2454 11.87 24.1569 11.6919 24.1569C11.5139 24.1569 11.347 24.2454 11.347 24.3556ZM18.5017 19.2575V18.7478C18.5017 18.6376 18.6686 18.549 18.8466 18.549C19.0247 18.549 19.1601 18.6376 19.1601 18.732V19.2575H19.7467C19.8575 19.2575 19.9465 19.4234 19.9465 19.6006C19.9465 19.7777 19.8575 19.9125 19.7625 19.9125H19.1602V20.5071C19.1602 20.6173 18.9933 20.7059 18.8153 20.7059C18.6372 20.7059 18.5018 20.6173 18.5018 20.5229V19.9125H17.9782C17.8674 19.9125 17.7784 19.7465 17.7784 19.5694C17.7784 19.3923 17.8674 19.2575 17.9624 19.2575H18.5017ZM18.5017 24.3556V24.8653H17.9624C17.8674 24.8653 17.7784 25.0001 17.7784 25.1772C17.7784 25.3544 17.8674 25.5203 17.9782 25.5203H18.5018V26.1307C18.5018 26.2252 18.6372 26.3137 18.8153 26.3137C18.9933 26.3137 19.1602 26.2252 19.1602 26.115V25.5203H19.7625C19.8575 25.5203 19.9465 25.3855 19.9465 25.2084C19.9465 25.0313 19.8575 24.8653 19.7467 24.8653H19.1601V24.3399C19.1601 24.2454 19.0247 24.1569 18.8466 24.1569C18.6686 24.1569 18.5017 24.2454 18.5017 24.3556Z" fill="black"/>
</svg>
